X:470
T: "Das Daennerl im Thal"
N: Z1150
O: Europa, Mitteleuropa, Deutschland, Sachsen
R: Liebes - Lied
M: 3/4
L: 1/8
K: Ab
 | EAAcce | e2BcA2
EBB4 | c4z2
EAAcce | e2BcA2
EBB4 | c4z2
B2BABc | B2e2z2
B2BABc | A2E2z
A | A3AAA | G2B4
EAAcce | d2fae2
EAAcce | edBcA2

